X:1
T:Get Right with God
T:Get Right with God
T:French Earl Oliver
T:French Earl Oliver, 1905
T:Public Domain Courtesy of the Cyber Hymnal™
C:French Earl Oliver
Z:Public Domain
Z:Courtesy of the Cyber Hymnal™
%%score ( 1 2 ) ( 3 4 )
L:1/8
Q:1/4=90
M:6/8
K:Ab
V:1 treble 
V:2 treble 
V:3 bass 
V:4 bass 
V:1
 [Ec]>[=D=B][Ec] [F_d][Ec][EA] | (BA)[DF] [CA]3 | [CA]>[FA][FA] [Fc]2 [CA] | [=Dc][DB][DF] [EB]3 | %4
w: 1.~Are there with- in you base|pass- * ions rife,|Pride and vain- glo- ry,|ran- cor and strife?|
w: 2.~Why not let Je- sus your|bur- * dens bear?|Ye who are sink- ing|in- to des- pair,|
w: 3.~Are you now long- ing for|per- * fect peace?|Would you from bond- age|now have re- lease?|
w: 4.~Have you a mo- ther in|yon- * der home?|Think of her prayers and|tears as you roam;|
 [Ec][=Ec]>[EB] [FA]2 [FG]/[FA]/ | [FB]2 [Fc] [Fd]2 [Gd] | [Ae]2 [EA] !fermata![Ec]2 [DB] | %7
w: Heed, heed the call to the|bet- ter life; “Get|right, get right with|
w: Lost for e- ter- ni- ty,|O be- ware! “Get|right, get right with|
w: Seek ye the Lord e’er His|plead- ings cease; “Get|right, get right with|
w: Hear her still plead- ing with|you to come; “Get|right, get right with|
 [CA]3- [CA]2 z ||"^Refrain" [Ed]>[Fd][^Fd] [Gd]>[Gd][Gd] | c2 [Fc] [Ec]3 | [EB][EB][EB] (Bc)[EB] | %11
w: God!” *||||
w: God!” *|Je- sus of Na- za- reth|stand- eth here,|Friend of the sin- * ner,|
w: God!” *||||
w: God!” *||||
 [=DB]>[DA][DF] !fermata!E3 | [Ec][=Ec]>[EG] [GB] [FA]2 | [FB][FB][Fc] [Fd]2 [A=d] | %14
w: |||
w: Sav- ior so dear;|Call ye up- on Him|while He is near; “Get|
w: |||
w: |||
 [Ae]2 [EA] !fermata![Ec]2 [DB] | [CA]3- [CA]2 |] %16
w: ||
w: right, get right with|God!” *|
w: ||
w: ||
V:2
 x6 | F2 x4 | x6 | x6 | x6 | x6 | x6 | x6 || x6 | (AG) x4 | x3 E2 x | x3 (EC_D) | x6 | x6 | x6 | %15
 x5 |] %16
V:3
 [A,,A,]>[A,,A,][A,,A,] [A,,A,][A,,A,][C,A,] | [D,A,]2 [D,A,] [A,,A,]3 | %2
w: ~ ~ ~ ~ ~ ~|~ ~ ~|
 [F,A,]>[F,C][F,C] [F,A,]2 [F,A,] | [B,,A,][B,,A,][B,,A,] [E,G,]3 | %4
w: ~ ~ ~ ~ ~|~ ~ ~ ~|
 A,[G,B,]>[G,C] [F,C]2 [F,C]/[F,C]/ | [D,B,]2 [C,=A,] [B,,B,]2 [F,_C] | [E,C]2 [E,C] (A,G,)[E,G,] | %7
w: ~ ~ ~ ~ ~ ~|~ ~ ~ ~|~ ~ ~ * ~|
 [A,,A,]3- [A,,A,]2 z || [E,G,]>[E,A,][E,=A,] [E,B,]>[E,B,][E,B,] | [A,,B,]2 [A,,A,] [A,,A,]3 | %10
w: ~ *|~ ~ ~ ~ ~ ~|~ ~ ~|
 [E,G,][E,G,][E,G,] (G,A,)[E,G,] | [B,,F,]>[B,,B,][B,,A,] !fermata!G,A,!fermata!B, | %12
w: ~ ~ ~ ~ * ~|~ ~ ~ ~ so dear;|
 A,[G,B,]>[G,C] [F,C] [F,C]2 | [D,B,][D,B,][C,=A,] [B,,B,]2 [F,_C] | [E,C]2 [E,C] (B,G,)[E,G,] | %15
w: |||
 [A,,A,]3- [A,,A,]2 |] %16
w: |
V:4
 x6 | x6 | x6 | x6 | A, x5 | x6 | x3 E,2 x | x6 || x6 | x6 | x3 E,2 x | x3 E,3 | A, x5 | x6 | %14
 x3 E,2 x | x5 |] %16

